X:1
T:Seasons (Mendelssohn), 76.76 D
T:Seasons (Mendelssohn), 76.76 D
T:Felix Mendelssohn (1809-1847)
T:Public Domain Courtesy of the Cyber Hymnal™
C:Felix Mendelssohn (1809-1847)
Z:Public Domain
Z:Courtesy of the Cyber Hymnal™
%%score ( 1 2 ) ( 3 4 )
L:1/8
Q:1/4=112
M:4/4
K:Eb
V:1 treble 
V:2 treble 
V:3 bass 
V:4 bass 
V:1
 B2 | G2 E2 D3 E | [EG]4 [DF]2 E2 | [EA]2 [EG]2 [Dc]3 [Dc] | [EB]6 [AB]2 | [Ge]2 [EB]2 [EA]3 [EG] | %6
 [EG]4 [EF]2 [Ec]2 | [Ec]2 [EF]2 [DA]3 [B,D] | [B,E]6 [EG]2 | [B,G]3 [B,F] [B,F]2 [B,F]2 | %10
 [DA]4 [EG]2 [GB]2 | [GB]2 [^F=A]2 [FA]2 [Ac]2 | [GB]6 [AB]2 | [Ge]2 [EB]2 [EA]3 [EG] | %14
 [EG]4 [EF]2 [Ec]2 | [Ec]4 [EF]4 | A6 [B,D]2 | [B,E]6 |] %18
V:2
 B2 | G2 E2 D3 E | x6 E2 | x8 | x8 | x8 | x8 | x8 | x8 | x8 | x8 | x8 | x8 | x8 | x8 | x8 | %16
 (E2 D2 C2) x2 | x6 |] %18
V:3
 B,2 | G,2 E,2 D,3 E, | [B,,B,]4 [B,,B,]2 [B,,G,]2 | [B,,C]2 [B,,B,]2 [A,B,]3 [A,B,] | %4
 [G,B,]6 [F,D]2 | [E,E]2 [G,E]2 C3 [B,C] | [A,C]4 [A,C]2 [A,C]2 | %7
 [A,,F,]2 [A,,F,]2 [B,,F,]3 [B,,A,] | [E,G,]6 [E,B,]2 | [D,B,]3 [D,B,] [D,B,]2 [D,B,]2 | %10
 [F,B,]4 [F,B,]2 [E,B,]2 | [D,B,]2 [D,D]2 [D,D]2 [^F,D]2 | [G,D]6 [F,D]2 | [E,E]2 [G,E]2 C3 [B,C] | %14
 [A,C]4 [A,C]2 A,2 | [A,,F,]4 [A,,F,]4 | [B,,F,]6 [B,,A,]2 | [E,G,]6 |] %18
V:4
 B,2 | G,2 E,2 D,3 E, | x8 | x8 | x8 | x4 C3 x | x8 | x8 | x8 | x8 | x8 | x8 | x8 | x4 C3 x | %14
 x6 A,2 | x8 | x8 | x6 |] %18

